!!!COA:	Josquin des Prez
!!!CDT:	~1450-1521/08/27
!!!OPR:	Missa Mater patris
!!!ONM:	5
!!!OTL:	Agnus Dei
!!!AGN:	Mass; Agnus Dei
!!!SCT:	NJE 10.1
!!!SCA:	New Josquin Edition 10.1
!!!voices: 5
!!!voices-OPR: 4(-5)
**kern	**kern	**kern	**kern	**kern
*staff5	*staff4	*staff3	*staff2	*staff1
*Ivox	*Ivox	*Ivox	*Ivox	*Ivox
*I"Bassus2	*I"Bassus1	*I"Tenor	*I"Altus1	*I"Altus2
*	*I"Bassus	*	*I"Altus	*
*I'B2	*I'B1	*I'T	*I'A1	*I'A2
*>[A,B,C]	*>[A,B,C]	*>[A,B,C]	*>[A,B,C]	*>[A,B,C]
*>Agnus1[A]	*>Agnus1[A]	*>Agnus1[A]	*>Agnus1[A]	*>Agnus1[A]
*>Agnus2[B]	*>Agnus2[B]	*>Agnus2[B]	*>Agnus2[B]	*>Agnus2[B]
*>Agnus3[C]	*>Agnus3[C]	*>Agnus3[C]	*>Agnus3[C]	*>Agnus3[C]
*>A	*>A	*>A	*>A	*>A
*clefF4	*clefF4	*clefGv2	*clefGv2	*clefGv2
*k[b-]	*k[b-]	*k[b-]	*k[b-]	*k[b-]
*M2/1	*M2/1	*M2/1	*M2/1	*M2/1
*met(C|)	*met(C|)	*met(C|)	*met(C|)	*met(C|)
=1-	=1-	=1-	=1-	=1-
!!section: Agnus Dei I
!!!OMD: Agnus Dei I
0r	0G	0r	0r	0r
=2	=2	=2	=2	=2
0r	1G	0r	0r	0r
.	1F	.	.	.
=3	=3	=3	=3	=3
0r	1.B-	0r	0G	0r
.	2G\	.	.	.
=4	=4	=4	=4	=4
0r	1B-	0r	1G	0r
.	1c	.	1F	.
=5	=5	=5	=5	=5
0r	1d	0G	1.B-	0r
.	2G\	.	.	.
.	[2d\	.	2G/	.
=6	=6	=6	=6	=6
0r	2d\]	1G	1B-	0r
.	4c\	.	.	.
.	4B-\	.	.	.
.	1A	1F	1c	.
=7	=7	=7	=7	=7
0r	2.G\	1.B-	0d	0r
.	4F\	.	.	.
.	4G\	.	.	.
.	4A\	.	.	.
.	[2B-\	2G/	.	.
=8	=8	=8	=8	=8
0r	4B-\]	1B-	1r	1r
.	4A\	.	.	.
.	4G\	.	.	.
.	4F\	.	.	.
.	1E	1c	1G	1g
=9	=9	=9	=9	=9
0r	1D	0d	1A	1f
.	1G	.	1B-	1b-
=10	=10	=10	=10	=10
0r	1F	1r	2c\	1a
.	.	.	2A/	.
.	1E	1G	2B-\	1g
.	.	.	2c\	.
=11	=11	=11	=11	=11
0r	1D	1A	0d	1f
.	1G	1B-	.	1b-
=12	=12	=12	=12	=12
0r	1F	2c\	0r	2a\
.	.	2A/	.	2f\
.	1E	2B-\	.	1g
.	.	2c\	.	.
=13	=13	=13	=13	=13
0r	0D	0d	1r	0f
.	.	.	1D	.
=14	=14	=14	=14	=14
0r	1r	0r	1E	1r
.	1D	.	1F	1f
=15	=15	=15	=15	=15
0r	1C	1r	2G/	1e
.	.	.	2E/	.
.	1BB-	1D	2F/	1d
.	.	.	2G/	.
=16	=16	=16	=16	=16
0r	1AA	1E	0A	1c
.	1D	1F	.	1f
=17	=17	=17	=17	=17
0r	1C	2G/	0r	1e
.	.	2E/	.	.
.	1BB-	2F/	.	1d
.	.	2G/	.	.
=18	=18	=18	=18	=18
0r	1AA	0A	1r	1c
.	1D	.	1F	1f
=19	=19	=19	=19	=19
0r	2C/	0r	1G	2e\
.	2BB-/	.	.	1d
.	1AA	.	1A	.
.	.	.	.	2c\
=20	=20	=20	=20	=20
0r	1GG	1r	2B-\	1d
.	.	.	2G/	.
.	1D	1F	2A/	1f
.	.	.	2B-\	.
=21	=21	=21	=21	=21
0r	1C	1G	0c	1e
.	1F	1A	.	1a
=22	=22	=22	=22	=22
0r	2G\	2B-\	0r	1g
.	2E\	2G/	.	.
.	1D	2A/	.	1f
.	.	2B-\	.	.
=23	=23	=23	=23	=23
0r	1C	0c	1r	1e
.	1F	.	1A	1a
=24	=24	=24	=24	=24
0r	1G	0r	1B-	1g
.	1E	.	1c	1g
=25	=25	=25	=25	=25
0r	1D	1r	0d	0f
.	1F	1A	.	.
=26	=26	=26	=26	=26
0r	0E-i	1B-	0G	0g
.	.	1c	.	.
=27	=27	=27	=27	=27
0r	1.D	0d	1A	1f
.	.	.	1d	1f
.	2BB-/	.	.	.
=28	=28	=28	=28	=28
0r	2C/	0G	2c\	2e-i\
.	2D\	.	1B-	1d
.	1E-i	.	.	.
.	.	.	4A/	2c\
.	.	.	4G/	.
=29	=29	=29	=29	=29
0r	0Dl	0Al	0Fl	0dl
!!LO:LB:i:g=z
=30||	=30||	=30||	=30||	=30||
*>B	*>B	*>B	*>B	*>B
*clefF4	*clefF4	*clefGv2	*clefGv2	*clefGv2
*k[b-]	*k[b-]	*k[b-]	*k[b-]	*k[b-]
*M2/1	*M2/1	*M2/1	*M2/1	*M2/1
*met(C|)	*met(C|)	*met(C|)	*met(C|)	*met(C|)
!!!OMD: Agnus Dei II
!!section: Agnus Dei II
!	!	!	!LO:TX:Z=6:t=Canon at the unison	!
0r	0r	0r	1.d	0r
.	.	.	2c\	.
=31	=31	=31	=31	=31
0r	0r	0r	2d\	0r
.	.	.	2B-\	.
.	.	.	2c\	.
.	.	.	[2d\	.
=32	=32	=32	=32	=32
0r	0r	0r	4d\]	1.d
.	.	.	4c\	.
.	.	.	4B-\	.
.	.	.	4A/	.
.	.	.	2G/	.
.	.	.	2A/	2c\
=33	=33	=33	=33	=33
0r	0r	0r	1D	2d\
.	.	.	.	2B-\
.	.	.	1r	2c\
.	.	.	.	[2d\
=34	=34	=34	=34	=34
0r	0r	0r	1.d	4d\]
.	.	.	.	4c\
.	.	.	.	4B-\
.	.	.	.	4A/
.	.	.	.	2G/
.	.	.	2c\	2A/
=35	=35	=35	=35	=35
0r	0r	0r	2d\	1D
.	.	.	2B-\	.
.	.	.	2c\	1r
.	.	.	2d\	.
=36	=36	=36	=36	=36
0r	0r	0r	2B-\	1.d
.	.	.	2.f\	.
.	.	.	4d\	.
.	.	.	2e\	2c\
=37	=37	=37	=37	=37
0r	0r	0r	1f	2d\
.	.	.	.	2B-\
.	.	.	2r	2c\
.	.	.	2F/	2d\
=38	=38	=38	=38	=38
0r	0r	0r	2G/	2B-\
.	.	.	2F/	2.f\
.	.	.	1G	.
.	.	.	.	4d\
.	.	.	.	2e\
=39	=39	=39	=39	=39
0r	0r	0r	1F	1f
.	.	.	1f	2r
.	.	.	.	2F/
=40	=40	=40	=40	=40
0r	0r	0r	2e\	2G/
.	.	.	1d	2F/
.	.	.	.	1G
.	.	.	4c\	.
.	.	.	4B-\	.
=41	=41	=41	=41	=41
0r	0r	0r	1A	1F
.	.	.	2r	1f
.	.	.	2D/	.
=42	=42	=42	=42	=42
0r	0r	0r	2E/	2e\
.	.	.	2F/	1d
.	.	.	1G	.
.	.	.	.	4c\
.	.	.	.	4B-\
=43	=43	=43	=43	=43
0r	0r	0r	2r	1A
.	.	.	2D/	.
.	.	.	2E/	2r
.	.	.	2F/	2D/
=44	=44	=44	=44	=44
0r	0r	0r	2G/	2E/
.	.	.	2A/	2F/
.	.	.	2B-\	1G
.	.	.	2c\	.
=45	=45	=45	=45	=45
0r	0r	0r	1d	2r
.	.	.	.	2D/
.	.	.	2G/	2E/
.	.	.	[2d\	2F/
=46	=46	=46	=46	=46
0r	0r	0r	4d\]	2G/
.	.	.	4B-\	.
.	.	.	2c\	2A/
.	.	.	2d\	2B-\
.	.	.	2e\	2c\
=47	=47	=47	=47	=47
0r	0r	0r	1f	1d
.	.	.	[1B-	2G/
.	.	.	.	[2d\
=48	=48	=48	=48	=48
0r	0r	0r	2B-\]	4d\]
.	.	.	.	4B-\
.	.	.	2A/	2c\
.	.	.	1G	2d\
.	.	.	.	2e\
=49	=49	=49	=49	=49
0r	0r	0r	1F	1f
.	.	.	1G	[1B-
=50	=50	=50	=50	=50
0r	0r	0r	1D	2B-\]
.	.	.	.	2A/
.	.	.	[1d	1G
=51	=51	=51	=51	=51
0r	0r	0r	2d\]	1F
.	.	.	2c\	.
.	.	.	2B-\	1G
.	.	.	4A/	.
.	.	.	4G/	.
=52	=52	=52	=52	=52
0r	0r	0r	2F/	1D
.	.	.	2A/	.
.	.	.	2G/	[1d
.	.	.	[2B-\	.
=53	=53	=53	=53	=53
0r	0r	0r	4B-\]	2d\]
.	.	.	4A/	.
.	.	.	1A	2c\
.	.	.	.	2B-\
.	.	.	2G/	4A/
.	.	.	.	4G/
=54	=54	=54	=54	=54
0r	0r	0r	2A/	2F/
.	.	.	2D/	2A/
.	.	.	1d	2G/
.	.	.	.	[2B-\
=55	=55	=55	=55	=55
0r	0r	0r	2c\	4B-\]
.	.	.	.	4A/
.	.	.	2A/	1A
.	.	.	1B-	.
.	.	.	.	2G/
=56	=56	=56	=56	=56
0r	0r	0r	2A/	2A/
.	.	.	1f	2D/
.	.	.	.	1d
.	.	.	4e\	.
.	.	.	4d\	.
=57	=57	=57	=57	=57
0r	0r	0r	2e\	2c\
.	.	.	1f	2A/
.	.	.	.	1B-
.	.	.	4e\	.
.	.	.	4d\	.
=58	=58	=58	=58	=58
0r	0r	0r	2c\	2A/
.	.	.	2B-\	1f
.	.	.	1d	.
.	.	.	.	4e\
.	.	.	.	4d\
=59	=59	=59	=59	=59
0r	0r	0r	2c\	2e\
.	.	.	2B-\	1f
.	.	.	1f	.
.	.	.	.	4e\
.	.	.	.	4d\
=60	=60	=60	=60	=60
0r	0r	0r	2e\	2c\
.	.	.	1d	2B-\
.	.	.	.	1d
.	.	.	4c\	.
.	.	.	4B-\	.
=61	=61	=61	=61	=61
0r	0r	0r	2A/	2c\
.	.	.	2.f\	2B-\
.	.	.	.	1f
.	.	.	4e\	.
.	.	.	2d\	.
=62	=62	=62	=62	=62
0r	0r	0r	2c\	2e\
.	.	.	1B-	1d
.	.	.	4A/	4c\
.	.	.	4G/	4B-\
=63	=63	=63	=63	=63
0r	0r	0r	0Fl	0Al
!!LO:LB:i:g=z
=64||	=64||	=64||	=64||	=64||
*>C	*>C	*>C	*>C	*>C
*clefF4	*clefF4	*clefGv2	*clefGv2	*clefGv2
*k[b-]	*k[b-]	*k[b-]	*k[b-]	*k[b-]
*M2/1	*M2/1	*M2/1	*M2/1	*M2/1
*met(C|)	*met(C|)	*met(C|)	*met(C|)	*met(C|)
!!!OMD: Agnus Dei III
!!section: Agnus Dei III
!	!	!	!	!LO:TX:Z=8:t=Inner three voices are an exact quotation from Brumel's motet
0G	0G	0r	0r	1d
.	.	.	.	2G/
.	.	.	.	[2d\
=65	=65	=65	=65	=65
1B-	1G	0r	0r	2d\]
.	.	.	.	4c\
.	.	.	.	4B-\
1c	1F	.	.	1A
=66	=66	=66	=66	=66
2d\	1.B-	0r	0G	2G/
2G\	.	.	.	2d\
[1d	.	.	.	2G/
.	2G\	.	.	[2d\
=67	=67	=67	=67	=67
2d\]	1B-	0r	1G	2d\]
2e\	.	.	.	4c\
.	.	.	.	4B-\
1f	1c	.	1F	1A
=68	=68	=68	=68	=68
1g	1d	0G	1.B-	1G
2G\	2r	.	.	[1d
[2B-\	[2d\	.	2G/	.
=69	=69	=69	=69	=69
2B-\]	2d\]	1G	1B-	2d\]
4A\	4c\	.	.	2e\
4G\	4B-\	.	.	.
2A\	1A	1F	1c	1f
2c\	.	.	.	.
=70	=70	=70	=70	=70
2B-\	1G	1.B-	0d	1g
4G\	.	.	.	.
4A\	.	.	.	.
4B-\	2r	.	.	[1G
4c\	.	.	.	.
2d\	[2B-\	2G/	.	.
=71	=71	=71	=71	=71
1G	4B-\]	1B-	1r	1G]
.	4A\	.	.	.
.	4G\	.	.	.
.	4F\	.	.	.
2r	1E	1c	1G	1g
2C/	.	.	.	.
=72	=72	=72	=72	=72
2.F\	2.D\	0d	1.A	1.f
4E\	4E\	.	.	.
2D\	2F\	.	.	.
2GG/	2G\	.	2B-\	4e\
.	.	.	.	4d\
=73	=73	=73	=73	=73
2D\	2F\	1r	2A/	2f\
1.GG	1G	.	1B-	2d\
.	.	1d	.	1g
.	4F\	.	4A/	.
.	4E\	.	4G/	.
=74	=74	=74	=74	=74
1.D	2.D\	1d	2.F/	2a\
.	.	.	.	1f
.	4E\	.	4G/	.
.	4F\	1d	2A/	.
.	4D\	.	.	.
2GG/	[2G\	.	[2B-\	4e\
.	.	.	.	4d\
=75	=75	=75	=75	=75
1GG	2G\]	1.d	2B-\]	1g
.	4F\	.	4A/	.
.	4E\	.	4G/	.
2r	2G\	.	2B-\	2d\
[2C/	2C/	[2c\	[2A/	2e\
=76	=76	=76	=76	=76
4C/]	1E	4c\]	4A/]	1c
4D\	.	4B-\	4G/	.
2E\	.	4A/	1g	.
.	.	4G/	.	.
2F\	1D	1A	.	1d
2D\	.	.	2f\	.
=77	=77	=77	=77	=77
1GG	1r	1G	2g\	1B-
.	.	.	1d	.
1D	1F	1r	.	1A
.	.	.	2c\	.
=78	=78	=78	=78	=78
1GG	1G	1r	2B-\	2G/
.	.	.	4A/	2B-\
.	.	.	4G/	.
1r	1A	1c	1F	1A
=79	=79	=79	=79	=79
1GG	1B-	1d	0r	1G
1C	1G	1e	.	2r
.	.	.	.	2G/
=80	=80	=80	=80	=80
2FF/	2.F\	1f	1c	1A
2.F\	.	.	.	.
.	4E\	.	.	.
.	1D	4F/	1d	2r
4D\	.	4G/	.	.
2F\	.	4A/	.	2F/
.	.	4B-\	.	.
=81	=81	=81	=81	=81
3E\V	1C	1c	1e	1G
3C/	.	.	.	.
3E\Z	.	.	.	.
3.D\V	1D	2A/	1f	1F
6C/	.	[2B-\	.	.
3D\Z	.	.	.	.
=82	=82	=82	=82	=82
1GG	1G	2B-\]	2r	2r
.	.	4A/	1d	2B-\
.	.	4G/	.	.
2D\	2F\	2A/	.	2A/
2GG/	2G\	[2B-\	[2e\	2G/
=83	=83	=83	=83	=83
1D	2D\	2B-\]	2e\]	2B-\
.	2F\	1A	1d	2F/
1G	1E	.	.	1G
.	.	2G/	2c\	.
=84	=84	=84	=84	=84
0F	1D	1d	1f	1A
.	1r	1r	1r	1r
=85	=85	=85	=85	=85
1.B-	1.G	1.d	1.g	1.b-
2BB-/	[2B-\	[2d\	[2f\	[2b-\
=86	=86	=86	=86	=86
1.B-	2B-\]	2d\]	2f\]	2b-\]
.	1G	1d	1g	1b-
[2BB-/	2B-\	2d\	2f\	2b-\
=87	=87	=87	=87	=87
2BB-/]	2B-\	1d	2f\	1b-
2B-\	2B-\	.	2f\	.
2c\	1F	1c	1f	2.a\
2A\	.	.	.	.
.	.	.	.	4g\
=88	=88	=88	=88	=88
2.B-\	0r	1r	1.f	4f\
.	.	.	.	4e\
.	.	.	.	1d
4c\	.	.	.	.
1d	.	1B-	.	.
.	.	.	[2g\	2G/
=89	=89	=89	=89	=89
2e\	0r	1c	2g\]	2E/
2c\	.	.	2.a\	2F/
1f	.	2.d\	.	1D
.	.	.	4g\	.
.	.	.	4f\	.
.	.	4c\	4e\	.
=90	=90	=90	=90	=90
2r	0r	4B-\	1d	1G
.	.	4A/	.	.
2B-\	.	1G	.	.
2c\	.	.	2e\	2E/
[2d\	.	2A/	2f\	2D/
=91	=91	=91	=91	=91
4d\]	0r	2B-\	1d	2.G/
4c\	.	.	.	.
4B-\	.	1G	.	.
4A\	.	.	.	4F/
1G	.	.	2.g\	4E/
.	.	.	.	4D/
.	.	[2c\	.	[2C/
.	.	.	4f\	.
=92	=92	=92	=92	=92
2.c\	0r	4c\]	4e\	2C/]
.	.	4B-\	4d\	.
.	.	4A/	1c	1F
4B-\	.	4G/	.	.
4A\	.	1F	.	.
4G\	.	.	.	.
2F\	.	.	2d\	2D/
=93	=93	=93	=93	=93
1c	0r	2G/	2e\	2C/
.	.	2A/	1c	1F
2A\	.	1F	.	.
2B-\	.	.	2d\	2D/
=94	=94	=94	=94	=94
1c	0r	2G/	2e\	2C/
.	.	2A/	1f	2F/
1d	.	1B-	.	2D/
.	.	.	[2d\	[2G/
=95	=95	=95	=95	=95
2B-\	0r	1G	2d\]	2G/]
2c\	.	.	1g	2E/
[1d	.	1A	.	1D
.	.	.	2f#i\	.
=96	=96	=96	=96	=96
1d]	2r	1G	1g	2r
.	1G	.	.	1B-
1D	.	1r	1r	.
.	2F\	.	.	2A/
=97	=97	=97	=97	=97
2G\	1G	2r	1r	1B-
2GG/	.	1d	.	.
2G\	2E\	.	2r	1G
2C/	2E\	2c\	[2g\	.
=98	=98	=98	=98	=98
3.F\V	2D\	1d	2g\]	1A
6G\	2D\	.	2f\	.
3A\Z	.	.	.	.
3B-\V	1G	2B-\	1g	2G/
3G\	.	.	.	.
.	.	2B-\	.	2d\
3B-\Z	.	.	.	.
=99	=99	=99	=99	=99
3c\V	2r	2A/	2e\	2c\
3A\	.	.	.	.
.	2c\	2A/	2e\	2A/
3c\Z	.	.	.	.
3G\V	2B-\	1d	2d\	2B-\
3B-\	.	.	.	.
.	2B-\	.	2d\	2G/
3G\Z	.	.	.	.
=100	=100	=100	=100	=100
1d	2G\	0r	2g\	2.B-\
.	2G\	.	2g\	.
.	.	.	.	4c\
2r	2B-\	.	2f\	1d
2d\	2B-\	.	2f\	.
=101	=101	=101	=101	=101
2B-\	1B-	0r	2d\	2r
2d\	.	.	1g	2G/
3c\V	1F	.	.	1A
3A\	.	.	.	.
.	.	.	[2f\	.
3c\Z	.	.	.	.
=102	=102	=102	=102	=102
3B-\V	1G	0r	2f\]	1B-
3G\	.	.	.	.
.	.	.	2e\	.
3B-\Z	.	.	.	.
3A\V	1F	.	1f	2c\
3F\	.	.	.	.
.	.	.	.	2A/
3A\Z	.	.	.	.
=103	=103	=103	=103	=103
1G	2r	0d	0r	2.B-\
.	1G	.	.	.
.	.	.	.	4G/
2GG/	.	.	.	2B-\
2D\	2F\	.	.	2A/
=104	=104	=104	=104	=104
2r	2E\	2c\	0r	2.G/
1GG	1G	2B-\	.	.
.	.	.	.	4A/
.	.	1d	.	4B-\
.	.	.	.	4G/
2D\	2F\	.	.	2A/
=105	=105	=105	=105	=105
2r	2E\	2c\	0r	2.G/
1GG	1G	2B-\	.	.
.	.	.	.	4A/
.	.	1d	.	4B-\
.	.	.	.	4G/
2D\	2F\	.	.	2A/
=106	=106	=106	=106	=106
2r	2E\	2c\	0r	2.G/
1GG	1G	2B-\	.	.
.	.	.	.	4A/
.	.	1d	.	4B-\
.	.	.	.	4G/
2D\	2F\	.	.	2A/
=107	=107	=107	=107	=107
2r	2E\	2c\	0r	2G/
2GG/	2.D\	2B-\	.	1.d
1D	.	2.A/	.	.
.	4E\	.	.	.
.	4F\	.	.	.
.	4G\	4B-\	.	.
=108	=108	=108	=108	=108
2C/	2E\	2c\	2r	2e\
2BB-/	2.D\	1d	2.f\	2f\
1F	.	.	.	2d\
.	4E\	.	4g\	.
.	2F\	2c\	[2a\	2A/
=109	=109	=109	=109	=109
0r	2G\	2B-\	2a\]	2B-\
.	2E\	2G/	1g	2c\
.	1D	1A	.	1d
.	.	.	2f#i\	.
=110	=110	=110	=110	=110
0GG	1G	1G	0g	1.B-
.	1r	1r	.	.
.	.	.	.	4A/
.	.	.	.	4G/
=111	=111	=111	=111	=111
1GG	0G	0B-	0d	1G
1GG	.	.	.	1g
=112	=112	=112	=112	=112
1C	1E	1G	1c	1g
1C	1E	1G	1c	1g
=113	=113	=113	=113	=113
1F	1D	1A	1d	1f
1D	1D	1B-	1d	1f
=114	=114	=114	=114	=114
2G\	1C	1c	1e	1g
2E\	.	.	.	.
2G\	1C	1c	1e	1g
2C/	.	.	.	.
=115	=115	=115	=115	=115
2.F\	0D	0A	0d	0f
4E\	.	.	.	.
4D\	.	.	.	.
4C/	.	.	.	.
2D\	.	.	.	.
=116	=116	=116	=116	=116
0GG	1.G	1r	1d	1.B-
.	.	[1d	1g	.
.	2A\	.	.	2c\
=117	=117	=117	=117	=117
0r	1B-	1d]	1f	1d
.	1G	1d	1g	2.B-\
.	.	.	.	4c\
=118	=118	=118	=118	=118
0r	[0B-	1d	2r	1d
.	.	.	1f	.
.	.	1d	.	1B-
.	.	.	4e\	.
.	.	.	4f\	.
=119	=119	=119	=119	=119
0r	1B-]	1d	2g\	2G/
.	.	.	1.f	2B-\
.	1F	1c	.	1A
=120	=120	=120	=120	=120
0r	1.G	1.B-	1.d	1B-
.	.	.	.	1G
.	4A\	4A/	2e\	.
.	4B-\	4G/	.	.
=121	=121	=121	=121	=121
0r	0c	0F	0f	0A
=122	=122	=122	=122	=122
*M3/1	*M3/1	*M3/1	*M3/1	*M3/1
*met(3)	*met(3)	*met(3)	*met(3)	*met(3)
1GG	0.r	1B-	0.r	1.d
1G	.	1B-	.	.
.	.	.	.	4c\
.	.	.	.	4B-\
1F	.	1c	.	1A
=123	=123	=123	=123	=123
2BB-/	1B-	1.d	0.r	1B-
1B-	.	.	.	.
.	1B-	.	.	1G
2G\	.	4c\	.	.
.	.	4B-\	.	.
2A\	1c	1A	.	1F
2F\	.	.	.	.
=124	=124	=124	=124	=124
2BB-/	1.d	1B-	1B-	2r
1B-	.	.	.	1f
.	.	1G	1B-	.
2G\	4c\	.	.	2e\
.	4B-\	.	.	.
2A\	1A	1F	1c	1f
2F\	.	.	.	.
=125	=125	=125	=125	=125
2BB-/	1B-	1B-	1.d	2r
1B-	.	.	.	1f
.	1G	1B-	.	.
2G\	.	.	4c\	2e\
.	.	.	4B-\	.
2A\	1F	1c	1A	1f
2F\	.	.	.	.
=126	=126	=126	=126	=126
2BB-/	1B-	1.d	1B-	2r
1B-	.	.	.	1f
.	1B-	.	1G	.
2G\	.	4c\	.	2e\
.	.	4B-\	.	.
2A\	1c	1A	1F	1f
2F\	.	.	.	.
=127	=127	=127	=127	=127
2BB-/	1.d	1B-	1B-	2r
1B-	.	.	.	1f
.	.	1G	1B-	.
2G\	4c\	.	.	2e\
.	4B-\	.	.	.
1A	1A	1F	1c	1f
=128	=128	=128	=128	=128
0G	1G	1B-	1.d	1g
.	1.B-	1.d	.	1G
.	.	.	2e\	.
1D	.	.	1f	[1d
.	2A\	2c\	.	.
=129	=129	=129	=129	=129
1GG	1G	1B-	0g	0.d]
0D	0D	0A	.	.
.	.	.	1f	.
=130	=130	=130	=130	=130
0.r	1G	1B-	1g	1B-
.	1F	1c	1.a	2.A/
.	.	.	.	4G/
.	1D	[1d	.	2F/
.	.	.	2g\	2E/
=131	=131	=131	=131	=131
1D	1.d	2d\]	2f\	1D
.	.	2c\	2e\	.
[0GG	.	2B-\	1d	1.d
.	2c\	2A/	.	.
.	2B-\	1G	[1d	.
.	2A\	.	.	2c\
=132	=132	=132	=132	=132
0.GG]	1G	1.d	2d\]	2B-\
.	.	.	2c\	2A/
.	1.d	.	2B-\	1G
.	.	2c\	2A/	.
.	.	2B-\	1G	[1d
.	2c\	2A/	.	.
=133	=133	=133	=133	=133
1.G	2B-\	1G	1r	2d\]
.	2A\	.	.	2c\
.	1G	1G	1g	1.B-
2GG/	.	.	.	.
1D	1D	1A	1f	.
.	.	.	.	2A/
=134	=134	=134	=134	=134
1GG	1G	1B-	1g	2G/
.	.	.	.	2B-\
1r	1.F	1.c	1.a	2A/
.	.	.	.	2F/
1r	.	.	.	2A/
.	2G\	2B-\	2g\	2B-\
=135	=135	=135	=135	=135
0.r	1E-i	1G	0g	1c
.	0D	0A	.	[0dl
.	.	.	1f#i	.
=136	=136	=136	=136	=136
0.GGl	0.Gl	0.Gl	0.gl	0.d]
==	==	==	==	==
*-	*-	*-	*-	*-
!!!RDF**kern: l=long note in original notation
!!!RDF**kern: i=editorial accidental
!!!ENC: Will Watson 17/08/2011
!!!END: 2011/08/17/
!!!EED:	Jesse Rodin
!!!EEV: 2013/10/25/
!!attribution-level@Jos: 3 (tricky)
!!!ONB:	Translated from MusicXML and edited on 2011/10/28/ by Craig Sapp
!!muse2ps: T^@{OPR}^u^@{ONM}{. }@{OTL}^C^@{COA}?\n@{SCT}^i2I100v85,85,85,85,130c80Q16
